X:1
T:Spencer the Rover
M:3/4
L:1/8
K:F
 C2| F2F-GA-B| c2 c2c-A| B2 A2 G2|F-E C2 C2| F2F-GA-B| c2 c2c-A| B2 c2 A2|\
 G4 AB| c2 B2c-d|c-B G2G-A| B2 D2 G2|F-E C2 C2| F2F-GA-B| c2 c2c-A|\
 B2 A2 G2| F4||
